symbols/web/memory/materialsymbolssharp/memory_wght500grad200_40px.svg

<svg xmlns="http://www.w3.org/2000/svg" height="40" width="40"><path d="M14.5 36.333v-3.75H7.417V25.5h-3.75v-3.458h3.75v-4.167h-3.75v-3.458h3.75V7.292H14.5V3.667h3.458v3.625h4.167V3.667h3.458v3.625h7.125v7.125h3.625v3.458h-3.625v4.167h3.625V25.5h-3.625v7.083h-7.125v3.75h-3.458v-3.75h-4.167v3.75Zm-3.375-7.458H29V11H11.125Zm3.792-3.792V14.917h10.166v10.166Zm3.333-3.333h3.458v-3.458H18.25ZM20 20Z"/></svg>

<svg xmlns="http://www.w3.org/2000/svg" height="40" width="40"><path d="M14.5 36.333V32.583H7.417V25.5H3.667V22.042H7.417V17.875H3.667V14.417H7.417V7.292H14.5V3.667H17.958V7.292H22.125V3.667H25.583V7.292H32.708V14.417H36.333V17.875H32.708V22.042H36.333V25.5H32.708V32.583H25.583V36.333H22.125V32.583H17.958V36.333ZM11.125 28.875H29V11H11.125ZM14.917 25.083V14.917H25.083V25.083ZM18.25 21.75H21.708V18.292H18.25ZM20 20Z"/></svg>
